X: 18493
T: I Am A Man Unmarried
R: reel
M: 4/4
K: Dmajor
DE|"D"F2 FD d2 dB|"D"AF ED "A"E2 FG|"D"A2 F2 d2 cA|"G"B6 A2|
"G"B2 d2 "D"A2 F2|"G"GF ED "A"E2 dB|"D"A2 F2 "A"GF E2|"D"D6 z2||

